X:1
T: Miss Graham
P:Kerr's 3rd
R:Reel
Q: 232
K:D
M:4/4
L:1/8
|:F|D2 FD A2 FA|Bd AF AF EF|D2 FD A2 FA|Bd AF E3F|
D2 FD A2 FA|Bd AF AF EF|D2 FD A2 FA|Bd AF E3A|
df ef d2 Ad|Bd Ad fe de|fa ef d2 Ad|Bd AF E3A|
df ef d2 Ad|Bd Ad fe de|fa ef de Bd|AF dF E3:|
